X:859
T:Reel 859
M:4/4
K:Dmaj
L:1/8
D2FD ADFD|A,2F,A, B,EEC|D2FD ADBD|AGFE DB,B,A,|D2FD ADFD|FDED CEEG|DEFG AFDF|EGFE DA,B,C|dcdA BdAF|GEFD EDB,C|dcdA BdAF|GEFD EDB,A,|dcdA BdAF|GEFD EDB,D|D,A,DC B,A,F,A|Bdce dBAF|
